local/share/icons/dracula-icons-main/24/places/folder-music.svg

<?xml version="1.0" encoding="UTF-8"?>
<svg xmlns="http://www.w3.org/2000/svg" xmlns:xlink="http://www.w3.org/1999/xlink" width="24" height="24" viewBox="0 0 24 24">
<path fill-rule="nonzero" fill="rgb(100%, 100%, 100%)" fill-opacity="1" d="M 11 5 C 9.890625 5 9 5.890625 9 7 L 9 13.179688 C 8.679688 13.066406 8.34375 13 8 13 C 6.34375 13 5 14.34375 5 16 C 5 17.65625 6.34375 19 8 19 C 9.65625 19 11 17.65625 11 16 L 11 7 L 17 7 L 17 13.179688 C 16.679688 13.066406 16.34375 13 16 13 C 14.34375 13 13 14.34375 13 16 C 13 17.65625 14.34375 19 16 19 C 17.65625 19 19 17.65625 19 16 L 19 7 C 19 5.890625 18.109375 5 17 5 Z M 8 15 C 8.550781 15 9 15.449219 9 16 C 9 16.550781 8.550781 17 8 17 C 7.449219 17 7 16.550781 7 16 C 7 15.449219 7.449219 15 8 15 Z M 16 15 C 16.550781 15 17 15.449219 17 16 C 17 16.550781 16.550781 17 16 17 C 15.449219 17 15 16.550781 15 16 C 15 15.449219 15.449219 15 16 15 Z M 16 15 "/>
</svg>

<svg width="24" height="24" version="1.1" viewBox="0 0 24 24" xmlns="http://www.w3.org/2000/svg">
 <defs>
  <style id="current-color-scheme" type="text/css">.ColorScheme-Text { color:#FFFFFF; } .ColorScheme-Highlight { color:#5294e2; }</style>
 </defs>
 <path class="ColorScheme-Text" d="m11 5c-1.108 0-2 0.892-2 2v6.1797c-0.31917-0.11396-0.65543-0.17897-1-0.17969-1.6569 0-3 1.3431-3 3s1.3431 3 3 3 3-1.3431 3-3v-9h6v6.1797c-0.31917-0.11396-0.65543-0.17897-1-0.17969-1.6569 0-3 1.3431-3 3s1.3431 3 3 3 3-1.3431 3-3v-9c0-1.108-0.892-2-2-2zm-3 10c0.55228 0 1 0.44772 1 1s-0.44772 1-1 1-1-0.44772-1-1 0.44772-1 1-1zm8 0c0.55228 0 1 0.44772 1 1s-0.44772 1-1 1-1-0.44772-1-1 0.44772-1 1-1z" fill="currentColor"/>
</svg>
